src/images/svg/symbols/gbp-basket.svg

<svg width="32" height="32" viewBox="0 0 32 32" fill="none" xmlns="http://www.w3.org/2000/svg">
<path fill-rule="evenodd" clip-rule="evenodd" d="M26.6894 17.2425C26.8471 16.6114 26.3698 16 25.7192 16H6.28077C5.6302 16 5.15284 16.6114 5.31062 17.2425L7.81062 27.2425C7.92192 27.6877 8.3219 28 8.78077 28H23.2192C23.6781 28 24.0781 27.6877 24.1894 27.2425L26.6894 17.2425ZM11.0001 19C10.4478 19 10.0001 19.4477 10.0001 20V24C10.0001 24.5523 10.4478 25 11.0001 25C11.5524 25 12.0001 24.5523 12.0001 24V20C12.0001 19.4477 11.5524 19 11.0001 19ZM15.0001 20C15.0001 19.4477 15.4478 19 16.0001 19C16.5524 19 17.0001 19.4477 17.0001 20V24C17.0001 24.5523 16.5524 25 16.0001 25C15.4478 25 15.0001 24.5523 15.0001 24V20ZM21.0001 19C20.4478 19 20.0001 19.4477 20.0001 20V24C20.0001 24.5523 20.4478 25 21.0001 25C21.5524 25 22.0001 24.5523 22.0001 24V20C22.0001 19.4477 21.5524 19 21.0001 19Z" fill="#D2D3DA"/>
<path fill-rule="evenodd" clip-rule="evenodd" d="M15.914 7.39517L13.1852 12H18.8148L16.086 7.39517C16.0473 7.32981 15.9527 7.32981 15.914 7.39517ZM21.8 12L17.5145 4.85749C17.1953 4.32551 16.6204 4 16 4C15.3796 4 14.8047 4.32551 14.4855 4.85749L10.2 12H5C4.44772 12 4 12.4477 4 13C4 13.5523 4.44772 14 5 14H9H12H20H23H27C27.5523 14 28 13.5523 28 13C28 12.4477 27.5523 12 27 12H21.8Z" fill="#D2D3DA"/>
<mask id="mask0_10467_207688" style="mask-type:alpha" maskUnits="userSpaceOnUse" x="17" y="0" width="15" height="10">
<path d="M30.75 0H18.25C17.5596 0 17 0.559644 17 1.25V8.75C17 9.44036 17.5596 10 18.25 10H30.75C31.4404 10 32 9.44036 32 8.75V1.25C32 0.559644 31.4404 0 30.75 0Z" fill="white"/>
</mask>
<g mask="url(#mask0_10467_207688)">
<path d="M30.75 0H18.25C17.5596 0 17 0.559644 17 1.25V8.75C17 9.44036 17.5596 10 18.25 10H30.75C31.4404 10 32 9.44036 32 8.75V1.25C32 0.559644 31.4404 0 30.75 0Z" fill="#0D47A1"/>
<path d="M31.9844 0.960402C31.8959 0.419955 31.4338 0.0078125 30.8766 0.0078125H30.5843L25.7931 3.19671V0.0078125H23.2069V3.19674L18.4157 0.0078125H18.1234C17.5663 0.0078125 17.1041 0.419955 17.0156 0.960432L21.1106 3.68603H17V6.31329H21.1106L17.0156 9.03882C17.1041 9.57927 17.5663 9.99141 18.1234 9.99141H18.4157L23.2069 6.80252V9.99141H25.7931V6.80252L30.5843 9.99141H30.8766C31.4338 9.99141 31.8959 9.5793 31.9844 9.03882L27.8894 6.31323H32V3.68597H27.8894L31.9844 0.960402Z" fill="white"/>
<path d="M25.2759 0.0078125V4.21141H32V5.78778H25.2759V9.99138H23.7241V5.78778H17V4.21141H23.7241V0.0078125H25.2759ZM23.1927 6.31323L17.7264 9.91781C17.5839 9.86312 17.4553 9.77984 17.3473 9.67486L17.2702 9.59216L22.2426 6.31323H23.1927ZM27.1481 6.31323L31.8524 9.41531C31.7819 9.54074 31.6887 9.65127 31.5783 9.74108L31.4925 9.80445L26.198 6.31323H27.1481ZM17.4534 0.232991L22.6897 3.68597H21.7396L17.1186 0.638735C17.1977 0.478289 17.3128 0.339301 17.4534 0.232991ZM31.2647 0.0777827C31.444 0.144836 31.6016 0.257217 31.7246 0.400997L26.7431 3.68597H25.7931L31.2647 0.0777827Z" fill="#F44336"/>
<path fill-rule="evenodd" clip-rule="evenodd" d="M30.75 0.625H18.25C17.9048 0.625 17.625 0.904822 17.625 1.25V8.75C17.625 9.09518 17.9048 9.375 18.25 9.375H30.75C31.0952 9.375 31.375 9.09518 31.375 8.75V1.25C31.375 0.904822 31.0952 0.625 30.75 0.625ZM18.25 0C17.5596 0 17 0.559644 17 1.25V8.75C17 9.44036 17.5596 10 18.25 10H30.75C31.4404 10 32 9.44036 32 8.75V1.25C32 0.559644 31.4404 0 30.75 0H18.25Z" fill="black" fill-opacity="0.04"/>
</g>
</svg>

<svg width="32" height="32" fill="none" xmlns="http://www.w3.org/2000/svg"><path fill-rule="evenodd" clip-rule="evenodd" d="M26.69 17.242A1 1 0 0 0 25.72 16H6.28a1 1 0 0 0-.97 1.242l2.5 10a1 1 0 0 0 .97.758h14.44a1 1 0 0 0 .97-.758l2.5-10ZM11 19a1 1 0 0 0-1 1v4a1 1 0 1 0 2 0v-4a1 1 0 0 0-1-1Zm4 1a1 1 0 1 1 2 0v4a1 1 0 1 1-2 0v-4Zm6-1a1 1 0 0 0-1 1v4a1 1 0 1 0 2 0v-4a1 1 0 0 0-1-1ZM15.914 7.395 13.185 12h5.63l-2.729-4.605a.1.1 0 0 0-.172 0ZM21.8 12l-4.285-7.143a1.766 1.766 0 0 0-3.03 0L10.2 12H5a1 1 0 1 0 0 2h22a1 1 0 1 0 0-2h-5.2Z" fill="#D2D3DA"/><mask id="a" style="mask-type:alpha" maskUnits="userSpaceOnUse" x="17" y="0" width="15" height="10"><path d="M30.75 0h-12.5C17.56 0 17 .56 17 1.25v7.5c0 .69.56 1.25 1.25 1.25h12.5c.69 0 1.25-.56 1.25-1.25v-7.5C32 .56 31.44 0 30.75 0Z" fill="#fff"/></mask><g mask="url(#a)"><path d="M30.75 0h-12.5C17.56 0 17 .56 17 1.25v7.5c0 .69.56 1.25 1.25 1.25h12.5c.69 0 1.25-.56 1.25-1.25v-7.5C32 .56 31.44 0 30.75 0Z" fill="#0D47A1"/><path d="M31.984.96a1.129 1.129 0 0 0-1.107-.952h-.293l-4.79 3.189V.007h-2.587v3.19L18.416.007h-.293c-.557 0-1.019.413-1.107.953l4.095 2.726H17v2.627h4.11L17.017 9.04c.088.54.55.952 1.107.952h.293l4.79-3.188V9.99h2.587V6.803l4.791 3.188h.293c.557 0 1.019-.412 1.107-.952L27.89 6.313H32V3.686h-4.11L31.983.96Z" fill="#fff"/><path d="M25.276.008V4.21H32v1.577h-6.724V9.99h-1.552V5.788H17V4.21h6.724V.008h1.552Zm-2.083 6.305-5.467 3.605a1.12 1.12 0 0 1-.379-.243l-.077-.083 4.973-3.279h.95Zm3.955 0 4.704 3.102a1.14 1.14 0 0 1-.274.326l-.085.063-5.295-3.49h.95ZM17.453.233l5.237 3.453h-.95L17.119.639c.079-.16.194-.3.334-.406ZM31.265.078c.179.067.337.18.46.323l-4.982 3.285h-.95L31.265.078Z" fill="#F44336"/><path fill-rule="evenodd" clip-rule="evenodd" d="M30.75.625h-12.5a.625.625 0 0 0-.625.625v7.5c0 .345.28.625.625.625h12.5c.345 0 .625-.28.625-.625v-7.5a.625.625 0 0 0-.625-.625ZM18.25 0C17.56 0 17 .56 17 1.25v7.5c0 .69.56 1.25 1.25 1.25h12.5c.69 0 1.25-.56 1.25-1.25v-7.5C32 .56 31.44 0 30.75 0h-12.5Z" fill="#000" fill-opacity=".04"/></g></svg>
